image/icons/telegrambrown.svg

<svg width="30" height="30" viewBox="0 0 30 30" fill="none" xmlns="http://www.w3.org/2000/svg">
<path fill-rule="evenodd" clip-rule="evenodd" d="M29.9999 15C29.9999 23.2838 23.2837 30 14.9999 30C6.71619 30 -6.10352e-05 23.2838 -6.10352e-05 15C-6.10352e-05 6.71625 6.71619 0 14.9999 0C23.2837 0 29.9999 6.71625 29.9999 15ZM15.5374 11.0738C14.0787 11.68 11.1624 12.9362 6.78994 14.8413C6.07994 15.1237 5.70744 15.4 5.67369 15.67C5.61619 16.1275 6.18869 16.3075 6.96619 16.5513C7.07244 16.585 7.18244 16.6187 7.29494 16.6562C8.06119 16.905 9.09119 17.1962 9.62619 17.2075C10.1124 17.2175 10.6549 17.0175 11.2537 16.6075C15.3387 13.8488 17.4474 12.455 17.5799 12.425C17.6737 12.4037 17.8037 12.3762 17.8912 12.455C17.9787 12.5325 17.9699 12.68 17.9612 12.72C17.9037 12.9612 15.6612 15.0475 14.4987 16.1275C14.1362 16.4638 13.8799 16.7025 13.8274 16.7575C13.7099 16.8787 13.5899 16.995 13.4749 17.1063C12.7624 17.7913 12.2299 18.3062 13.5049 19.1462C14.1174 19.55 14.6074 19.8838 15.0962 20.2163C15.6299 20.58 16.1624 20.9425 16.8524 21.395C17.0274 21.51 17.1949 21.6287 17.3587 21.745C17.9799 22.1887 18.5387 22.5862 19.2287 22.5237C19.6287 22.4862 20.0437 22.11 20.2537 20.9862C20.7499 18.3287 21.7274 12.5738 21.9537 10.2013C21.9675 10.0043 21.9591 9.80636 21.9287 9.61125C21.9105 9.45366 21.8338 9.30866 21.7137 9.205C21.5349 9.05875 21.2574 9.0275 21.1324 9.03C20.5687 9.04 19.7037 9.34125 15.5374 11.0738Z" fill="#592F0A"/>
</svg>

<svg width="30" height="30" fill="none" xmlns="http://www.w3.org/2000/svg"><path fill-rule="evenodd" clip-rule="evenodd" d="M30 15c0 8.284-6.716 15-15 15-8.284 0-15-6.716-15-15C0 6.716 6.716 0 15 0c8.284 0 15 6.716 15 15zm-14.463-3.926c-1.458.606-4.375 1.862-8.747 3.767-.71.283-1.083.559-1.116.829-.058.458.515.638 1.292.881l.329.105c.766.249 1.796.54 2.331.552.486.01 1.029-.19 1.628-.6 4.085-2.76 6.193-4.153 6.326-4.183.094-.021.224-.049.311.03.088.078.079.225.07.265-.057.241-2.3 2.327-3.462 3.408-.363.336-.62.575-.672.63-.117.12-.237.237-.352.348-.713.685-1.245 1.2.03 2.04.612.404 1.102.738 1.591 1.07.534.364 1.066.726 1.756 1.179.175.115.343.234.507.35.62.444 1.18.841 1.87.779.4-.038.815-.414 1.025-1.538.496-2.657 1.473-8.412 1.7-10.785a2.636 2.636 0 0 0-.025-.59.632.632 0 0 0-.215-.406c-.18-.146-.457-.178-.582-.175-.563.01-1.428.311-5.595 2.044z" fill="#592F0A"/></svg>
